X:1
T:A minor Timothy Swan, 1801
T:Isaac Watts, 1717 (Psalm 89, Part 8)            88. 88. 88.
T:Patmos
T:Transcribed from Swan's New England Harmony, 1801.
%%score [ 1 2 3 4 ]
L:1/8
Q:1/4=120
M:4/4
K:C
V:1 treble nm="Tr." snm="Tr."
V:2 treble nm="C." snm="C."
V:3 treble-8 nm="T." snm="T."
V:4 bass nm="B." snm="B."
V:1
"^3. Hast thou not promised to  thy    Son        And  all  his   seed ____    a    heav'n–ly  crown?  But flesh and sense     in –  dulge             des–pair:""^4. For  ev–er   bles–sed   be   the     Lord,      Who gives his saints      a    long       re – ward   For all their toil, ____ re – proach,            and   pain:""^2. Lord, shall it be   for  ev — er      said,     \"The race  of   man ____  was  on  —   ly    made  For sickness, sor    –   row,  and                the  dust?\"""^1. Think, mighty God, on fee–ble  man;     How few his   hours!        how short  his   span!   Short from the cra   –   dle   to                 the grave;" A4 c2 c2 | %1
 c6 G2 | A4 A4 | G8- | G4 G4 | c4 c4 | (B3 A G2) G2 | e4 e4 | e8 | c4 B2 A2 | (e2 c2 B2) d2 | %11
 c6 G2 | G8 | z8 | z8 | z8 | %16
"^1. Who              can secure his  vi     –     tal  breath _________      Against  the bold _______    de – mands        of""^2. Are              not thy servants day ___   by  day ____________      Sent to their graves,          and  turned        to""^3. For                ev–er blessed  be ______   the  Lord,  _________      That faith can read            his   ho      –       ly""^4. Let                 all  below  and  all ______   a –  bove ___________       Join  to  proclaim ______   thy   won  –  drous" e8 | %17
 e2 e2 c2 c2 | (e2 c2 A2) A2 | (f4 e4 | e4) e4 | e2 c2 d4- | d6 G2 | (G3 A B2) B2 | c4 z2 c2 | %25
 g4 d4 | (e2 c2 d2) d2 | c4 B4 | A8 |] %29
V:2
 E4 E2 E2 | A6 E2 | D4 (G2 F2) | E8 | z4 E4 | E4 E4 | G6 G2 | (G2 E2) E4 | E8 | G4 G2 E2 | E6 A2 | %11
 E6 G2 | E8 | z4 G4 | A2 A2 G2 G2 | E2 E2 (A4 | G8) | z8 | z8 | z8 | z4 E4 | G2 G2 A4- | A6 E2 | %23
 G6 G2 | %24
"^1. death, With skill                     to          fly,        or          power  to    save?""^2. clay?   Lord, where's             thy        kind–ness        to      the       just?""^3. word,  And  find                     a            re   –   sur   –   rec – tion    there.""^4. love,    And   each                   re    –    peat     their      loud   A   –   men." E4 z2 G2 | %25
 G6 G2 | G4 G4 | E4 E4 | E8 |] %29
V:3
"^1. Think, mighty God, on fee—ble man;    How  few his   hours!        how  short   his    span!  Short from the cra  —  dle    to              the grave;""^2. Lord, shall it be   for  ev — er      said,     \"The race  of   man ____  was  on  —   ly    made  For sickness, sor    —   row,  and             the  dust?\"""^3. Hast thou not promised to  thy    Son         And  all  his   seed ____    a    heav'n—ly  crown?  But flesh and sense     in —  dulge          des—pair:""^4. For ev—er  bles—sed  be   the     Lord,      Who gives his saints ___    a    long     re — ward   For all their toil, ____ re — proach,      and   pain:" A4 e2 e2 | %1
 c6 e2 | A4 d4 | B8 | z4 B4 | c4 e4 | d6 g2 | (e2 c2) (B2 G2) | A8 | e4 d2 c2 | (B2 A2 e2) A2 | %11
 (G3 A G2) F2 | E8 | %13
 z4"^1. Who can secure his  vital  breath ___________         Who  can se– cure    his       vi–tal  breath ___   Against  the bold ______   de –mands         of""^2. Are  not thy servants day by day ___________         Are   not  thy ser  – vants    day by day _____    Sent  to their graves,___  and  turned        to""^3. For  ev–er bles–sed  be  the Lord, __________          For   ev –er   bles –  sed       be  the Lord,____    That faith can read ____  his   ho      –        ly""^4.  Let  all  be–low and  all  a – bove ____________          Let    all  be – low      and      all  a  – bove ____     Join  to  proclaim  _____ thy   won  –  drous" e4 | %14
 d2 d2 g2 e2 | e2 c2 (A4 | B4 c4) | A4 e2 e2 | c4 A4 | d2 d2 B4- | B4 G4 | c2 c2 (d3 e | f6) e2 | %23
 (d3 e d2) B2 | c4 z2 e2 | (dcde d2) cd | e4 E4 | (A4 G2) E2 | A8 |] %29
V:4
 A,4 A,2 A,2 | A,6 E,2 | D,4 D,4 | E,8- | E,4 E,4 | C,4 C,4 | G,6 E,2 | C,4 E,4 | A,,8 | %9
 C,4 G,2 A,2 | (E,2 F,2 E,2) D,2 | C,6 C,2 | C,8 | z8 | z8 | %15
"^1. Who  can secure his  vi–tal  breath,            Who can secure his vital breath""^2. Are  not  thy servants day by day,               Are not thy servants day by day""^3. For   ev–er  bles–sed  be  the Lord,              For   ev–er  blessed be the Lord,""^4. Let    all    be–low and  all  a – bove,               Let   all   be–low and all  a–bove" E,4 D,2 D,2 | %16
 G,2 E,2 E,2 C,2 | A,,8 | C,4 D,2 D,2 | D,2 D,2 E,2 E,2 | E,4 E,4 | C,2 F,2 D,4- | D,6 E,2 | %23
 G,6 G,2 | C,4 z2 C,2 | G,6 G,2 | C4 G,4 | A,4 E,4 | A,,8 |] %29

